X:1
T:Title
L:1/8
Q:1/4=80
M:4/4
K:Bb
V:1 treble nm="Grand Piano"
V:1
 CE E/E/E/E/ EE/E/ D2 | DG G/G/G FB/A/ G2 | FF F/F/F/F/ EE/E/ D2 | DG G/G/G FB/A/ G2 | %4
w: ????~???? * * * * * * * * *||||
 BG/G/ Bd/d/ cB/A/ G2 | FF F/F/A GF/F/ E2 | EE E/E/B A/G/F/E/ D2 | C/D/E E/E/E EE D2 | %8
w: ||||
 DG G/G/G FB/A/ G2 | FF F/G/A A/B/c c2 | cA F/F/B A/G/F/E/ D2 |] %11
w: |||

